X: 21404
M: C
L: 1/8
K: D
[|!p!\
ddef dd cB/A/ | ddef d2cA |\
ddef g>fed | cABc d2dA |\
!f!ddef dd cB/A/ | ddef d2cA |\
ddef g>fed | cABc d2d2 |
!p!Bc/B/ B>AB>c d2 | AB/A/ A>G F2A2 |\
!f!Bc/B/ B>AB>c d2 | AB/A/ A>G F2A2 |\


